X:1
T:The Halting March
L:1/8
M:4/4
I:linebreak $
K:G
V:1 treble 
V:1
 A2 B/c/d | e e2 d | e>d ef | ec A2 | G2 Bc | d d2 e | dB GB | d2 cB | A2 B/c/d | e e2 d | e>d ef | %11
 ec A2 |$ a g2 e | d c2 B | A>B AG |1 A2 E2 :|2 A2 z2 || a a2 g | e d2 e | g>a ge | dB G2 | %21
 a a2 g | e d2 e | g>a ge |$ g2 a/g/e/g/ | a a2 g | e d2 e | g>a ge | dB G2 | A>B cd | e2 dB |1 %31
 A>B cd | e2 e2 :|2 A>B AG | A2 E2 || %35
